X: 29
T: Missa La Martinella / Kyrie
N: Derived from Mar1009a-Missa_La_Martinella-Kyrie.krn
C: Johannes Martini
%%abc-version 2.0
%%abcx-abcm2ps-target-version 5.9.1 (29 Sep 2008)
%%abc-creator hum2abc beta
%%abcx-conversion-date 2019/02/17 07:19:41
%%abc-edited-by Jesse Rodin
%%abc-edited-by Chris Gage 10-16-2014
%%abcx-initial-encoding-date 2014/10/25/
%%humdrum-veritas 35625091
%%humdrum-veritas-data 74043995
%%linebreak <none>
%%barnumbers 0
L: 1/4
M: 4/2
Q: 1/2=120
%%staves [1 2 3 4]
V: 1 clef=treble
V: 2 clef=treble-8
V: 3 clef=treble-8
V: 4 clef=bass
K: F
[V:1] G8 | 
[V:2] z8 | 
[V:3] z8 | 
[V:4] z8 | 
[V:1] F4G4 | 
[V:2] z8 | 
[V:3] z8 | 
[V:4] z8 | 
[V:1] B8 | 
[V:2] z8 | 
[V:3] z8 | 
[V:4] G,8 | 
[V:1] A4G4- | 
[V:2] z8 | 
[V:3] z8 | 
[V:4] F,4G,4 | 
[V:1] G2FED4 | 
[V:2] G8 | 
[V:3] z8 | 
[V:4] B,8 | 
[V:1] z2D2E2G2- | 
[V:2] F4G4 | 
[V:3] z8 | 
[V:4] A,4G,4- | 
[V:1] GAB4AG | 
[V:2] B8 | 
[V:3] z8 | 
[V:4] G,2F,E,D,2G,2 | 
[V:1] F4z2G2- | 
[V:2] A4G3F/E/ | 
[V:3] z8 | 
[V:4] D,4G,,4- | 
[V:1] GAB3cd2- | 
[V:2] D2z2B3c | 
[V:3] G8- | 
[V:4] G,,8 | 
[V:1] dcBAG2B2 | 
[V:2] d3cBAG2 | 
[V:3] G8 | 
[V:4] G,2A,2B,4 | 
[V:1] A2c3BA2 | 
[V:2] A2F2f4 | 
[V:3] F8 | 
[V:4] C4A,2C2 | 
[V:1] G2B3AGF | 
[V:2] d8- | 
[V:3] G8 | 
[V:4] B,2G,2B,3A, | 
[V:1] G2FE(3:2:2D4G2 | 
[V:2] d8 | 
[V:3] B8- | 
[V:4] G,6G,,2 | 
[V:1] (3:2:6G3AB2G3AB2 | 
[V:2] G3AB3G | 
[V:3] B8 | 
[V:4] G,,4z2G,2 | 
[V:1] (3:2:7c3B A G^F3EF2 | 
[V:2] ABc2d4 | 
[V:3] A8 | 
[V:4] F,2E,2D,4 | 
[V:1] G6E2- | 
[V:2] B4c2c2- | 
[V:3] G8- | 
[V:4] _E,4C,4- | 
[V:1] E4F2D2- | 
[V:2] cGc2A2B2- | 
[V:3] G4F4 | 
[V:4] C,4z2B,,2- | 
[V:1] DCA,2B,2A,2 | 
[V:2] BAF2G2A2- | 
[V:3] D8 | 
[V:4] B,,C,D,2G,,2F,2- | 
[V:1] z2A3G/F/A2 | 
[V:2] ABc2d2d2- | 
[V:3] F8 | 
[V:4] F,G,A,2D,2C,2 | 
[V:1] B2G4F2 | 
[V:2] dcBAG2zD | 
[V:3] G4B4- | 
[V:4] z2_E,4D,2 | 
[V:1] D2ED2^C/=B,/C2 | 
[V:2] F2G2E4 | 
[V:3] B4A4 | 
[V:4] B,,2G,,2A,,4 | 
[V:1] D6C2 | 
[V:2] D3EFGA2- | 
[V:3] F8 | 
[V:4] B,,2D,3E,F,2- | 
[V:1] F3E/D/E4 | 
[V:2] AGF4E2 | 
[V:3] A8 | 
[V:4] F,E,D,2C,4 | 
[V:1] D2G2F2B2- | 
[V:2] F2G2D2F2 | 
[V:3] B4d4- | 
[V:4] B,,2G,,2B,,3A,, | 
[V:1] B2A2G4- | 
[V:2] G2A2D2d2- | 
[V:3] d4B4 | 
[V:4] G,,2F,,2G,,4 | 
[V:1] G2^F2F3E | 
[V:2] dcd2A2d2- | 
[V:3] A8 | 
[V:4] D,8 | 
[V:1] G8- | 
[V:2] d2_e2c3B | 
[V:3] G8- | 
[V:4] G,,2C,3B,,C,2 | 
[V:1] G8 ||  
[V:2] d8 ||  
[V:3] G8 ||  
[V:4] G,,8 ||  
[V:1]  [K:F] [K:clef=treble][M:4/2]z8 | 
[V:2]  [K:F] [K:clef=treble-8][M:4/2]G4G4- | 
[V:3]  [K:F] [K:clef=treble-8][M:4/2]z8 | 
[V:4]  [K:F] [K:clef=bass][M:4/2]z8 | 
[V:1] D4D4- | 
[V:2] G2A2B2G2 | 
[V:3] z8 | 
[V:4] z8 | 
[V:1] D2E2F2D2 | 
[V:2] B2c2d3c | 
[V:3] z8 | 
[V:4] z8 | 
[V:1] F2G2A3G | 
[V:2] d2B2A3B | 
[V:3] z8 | 
[V:4] z8 | 
[V:1] A2F2E4 | 
[V:2] c2d4^c2 | 
[V:3] z8 | 
[V:4] z8 | 
[V:1] z2A2B2A2- | 
[V:2] d4G4 | 
[V:3] z8 | 
[V:4] z8 | 
[V:1] AGG4^F2 | 
[V:2] F2G2A4 | 
[V:3] z8 | 
[V:4] z8 | 
[V:1] G4G4 | 
[V:2] G4z4 | 
[V:3] z8 | 
[V:4] z8 | 
[V:1] z8 | 
[V:2] G4F4 | 
[V:3] z8 | 
[V:4] G,,4D,4 | 
[V:1] z8 | 
[V:2] G4A2B2- | 
[V:3] z8 | 
[V:4] B,,2C,4D,2 | 
[V:1] z8 | 
[V:2] B2AGB3c | 
[V:3] z8 | 
[V:4] E,2F,2E,D,G,2- | 
[V:1] z8 | 
[V:2] A4G2B2- | 
[V:3] z8 | 
[V:4] G,2^F,2G,2G,,2 | 
[V:1] z8 | 
[V:2] Bcd2B2_e2- | 
[V:3] z8 | 
[V:4] B,,3C,D,2G,2- | 
[V:1] z8 | 
[V:2] edd3Bc2 | 
[V:3] z8 | 
[V:4] G,2F,2_E,4 | 
[V:1] D4F4- | 
[V:2] z2d3cBA | 
[V:3] z8 | 
[V:4] D,2F,3E,D,C, | 
[V:1] F2G2A4 | 
[V:2] B2AGF3E | 
[V:3] z8 | 
[V:4] D,2C,B,,A,,2D,2 | 
[V:1] B4A4 | 
[V:2] D2G4^F2 | 
[V:3] z8 | 
[V:4] B,,2G,,2D,4 | 
[V:1] G2d3cBA | 
[V:2] G2D2F4 | 
[V:3] z8 | 
[V:4] G,,2B,,3C,D,2 | 
[V:1] B2AGF3E | 
[V:2] G4A4 | 
[V:3] z8 | 
[V:4] B,,2_E,2D,2F,2 | 
[V:1] D2G4^F2 | 
[V:2] B4A4 | 
[V:3] z8 | 
[V:4] G,4D,4 | 
[V:1] G2F3GA2 | 
[V:2] G2d4c2 | 
[V:3] z8 | 
[V:4] E,2D,2F,4 | 
[V:1] DEFGABc2 | 
[V:2] B2AGF2A2 | 
[V:3] z8 | 
[V:4] G,2F,E,D,2C,2 | 
[V:1] d2B4A2 | 
[V:2] B2d2c4 | 
[V:3] z8 | 
[V:4] B,,4F,4 | 
[V:1] B4z4 | 
[V:2] B4G2B2- | 
[V:3] z8 | 
[V:4] B,,2_E,4D,2 | 
[V:1] z8 | 
[V:2] B2A2F2A2- | 
[V:3] z8 | 
[V:4] B,,2D,4C,2 | 
[V:1] z8 | 
[V:2] A2G2E2F2 | 
[V:3] z8 | 
[V:4] A,,2C,4B,,2 | 
[V:1] z8 | 
[V:2] G2FED2G2- | 
[V:3] z8 | 
[V:4] G,,2B,,4A,,G,, | 
[V:1] z4B4 | 
[V:2] G2^F2G3A | 
[V:3] z8 | 
[V:4] A,,4G,,4 | 
[V:1] G2B4A2 | 
[V:2] B3cd2D2- | 
[V:3] z8 | 
[V:4] z2G,4F,2 | 
[V:1] F2A4G2 | 
[V:2] DEF4G2 | 
[V:3] z8 | 
[V:4] A,3B,C2B,2 | 
[V:1] E2F2G2FE | 
[V:2] A2D2E2D2 | 
[V:3] z8 | 
[V:4] C2D2G,2B,2- | 
[V:1] D2G4^F2 | 
[V:2] G4D4 | 
[V:3] z8 | 
[V:4] B,2A,G,A,4 | 
[V:1] G4z4 | 
[V:2] d4c2B2- | 
[V:3] z8 | 
[V:4] G,2B,2A,2G,2- | 
[V:1] z8 | 
[V:2] BAc3BAG | 
[V:3] z8 | 
[V:4] G,F,E,D,C,2F,2- | 
[V:1] z8 | 
[V:2] F2B4A2 | 
[V:3] z8 | 
[V:4] F,E,D,2C,4 | 
[V:1] d4c2B2- | 
[V:2] B4c2d2- | 
[V:3] z8 | 
[V:4] B,,4A,,2G,,2 | 
[V:1] BAc3BAG | 
[V:2] d2c2_e4 | 
[V:3] z8 | 
[V:4] z2C,3B,,C,2 | 
[V:1] F2B3GA2 | 
[V:2] d4c4 | 
[V:3] z8 | 
[V:4] D,2B,,2F,4 | 
[V:1] D2G3FD2- | 
[V:2] B3AG2F2 | 
[V:3] z8 | 
[V:4] B,,2_E,3D,B,,2- | 
[V:1] DEF2G2B2 | 
[V:2] B2A3GG2- | 
[V:3] z8 | 
[V:4] B,,C,D,2C,2B,,2 | 
[V:1] A2c2B2A2- | 
[V:2] G2F2G2F2 | 
[V:3] z8 | 
[V:4] C,2A,,2G,,2D,2 | 
[V:1] AGG4^F2 | 
[V:2] B2c2A4 | 
[V:3] z8 | 
[V:4] _E,2C,2D,4 | 
[V:1] G4D4- | 
[V:2] G2E2F2G2- | 
[V:3] z8 | 
[V:4] G,,4z2G,,2 | 
[V:1] D2C2B,2A,G, | 
[V:2] GFEDG4 | 
[V:3] z8 | 
[V:4] B,,2C,2_E,4 | 
[V:1] A,8 ||  
[V:2] [F8A8] & d8 ||  
[V:3] z8 ||  
[V:4] D,8 ||  
[V:1]  [K:F] [K:clef=treble][M:3/1]z12 | 
[V:2]  [K:F] [K:clef=treble-8][M:3/1]z12 | 
[V:3]  [K:F] [K:clef=treble-8][M:3/1]z12 | 
[V:4]  [K:F] [K:clef=bass][M:3/1]A,8B,4 | 
[V:1] z12 | 
[V:2] A8B4 | 
[V:3] z12 | 
[V:4] A,2F,3E,F,2G,2E,2 | 
[V:1] A8B4 | 
[V:2] A2F3EF2G2E2 | 
[V:3] z12 | 
[V:4] F,2D,3C,A,,2G,,2G,2 | 
[V:1] A6G2F4 | 
[V:2] F3GABc4=B2 | 
[V:3] z12 | 
[V:4] D,2F,4E,2D,4 | 
[V:1] E2D2E2G3FG2 | 
[V:2] c2d2G2B3cde | 
[V:3] G12 | 
[V:4] C,2B,,2C,2B,,A,,G,,4 | 
[V:1] A3Bc3BAGA2 | 
[V:2] f3ec2f3edc | 
[V:3] F12 | 
[V:4] D,4z4D,4 | 
[V:1] G2B3AG4^F2 | 
[V:2] B2G2B2c2d4- | 
[V:3] G8A4 | 
[V:4] E,3F,G,2E,2D,4 | 
[V:1] G3FEDE2D2F2- | 
[V:2] d2G6F2A2 | 
[V:3] B4c4A4 | 
[V:4] G,,4C,4D,4 | 
[V:1] FED4C2C2B,C | 
[V:2] B3AG2A2G3F | 
[V:3] d4e6d2 | 
[V:4] B,,4C,6G,,2 | 
[V:1] D2B,3A,G,2A,4 | 
[V:2] GDG3FEDE4 | 
[V:3] d8^c4 | 
[V:4] G,,4B,,4A,,4 | 
[V:1] z12 | 
[V:2] D2F3EF2G2BA- | 
[V:3] d12 | 
[V:4] z2B,,3C,D,2_E,2D,2- | 
[V:1] z4z4d4- | 
[V:2] AGG4^F2G3A | 
[V:3] [M:3/1]z12 | 
[V:4] D,C,B,,2A,,4G,,2G,2- | 
[V:1] d2c2B4A4 | 
[V:2] B2c2_e2d3=ef2 | 
[V:3] z12 | 
[V:4] G,2A,2G,4D,4 | 
[V:1] G4A2c4B2 | 
[V:2] gfedf3edcd2 | 
[V:3] G4F4G4 | 
[V:4] z12 | 
[V:1] c2G2z2F2G2G2- | 
[V:2] c2B2_A2F2B4 | 
[V:3] A2B2c2_A2d2e2- | 
[V:4] F,2G,2_A,4G,4 | 
[V:1] GAB3AG4^F2 | 
[V:2] c2B2G4A4 | 
[V:3] edd4c2d4 | 
[V:4] C,2D,2_E,4D,4 | 
[V:1] G12 |]  
[V:2] G12 |]  
[V:3] d12 |]  
[V:4] G,,12 |]  



